_includes/icons/color-quality.svg

<svg fill="#666" height="50" viewBox="0 0 48 48" width="50" xmlns="http://www.w3.org/2000/svg"><path d="m2 8h44v32h-44z" fill="#eceff1"/><path d="m44 10v28h-40v-28zm2-2h-44v32h44z" fill="#cfd8dc"/><path d="m24.71 26.71-.71-.71-.7.71.29.29-.29.3.7.7.71-.7.29-.3z" fill="#3949ab"/><path d="m24.71 26.71-.71-.71-.7.71-.3.29 1 1 .71-.7-.3-.3z" fill="#3949ab"/><g fill="#3f51b5"><path d="m24 27-8 8v-4h-4l9-9 3 3-.7.71-.3.29z"/><path d="m36 31h-4v4l-8-8 .71-.7.29-.3-.29-.29-.71-.71 3-3z"/></g><path d="m32.45 23.8c-.236.349-.54.653-.889.889-.259.169-.382.461-.315.754.349 1.755-.788 3.454-2.554 3.803-.203.045-.405.056-.619.067-.214 0-.439-.023-.653-.067h-.146c-.247 0-.484.112-.619.315-.596.888-1.586 1.428-2.655 1.439h-.011c-1.08 0-2.093-.529-2.689-1.418-.135-.202-.371-.326-.619-.326h-.101c-.214.034-.439.056-.653.056-1.8-.011-3.24-1.462-3.229-3.24 0-.214.023-.416.056-.619.068-.293-.056-.585-.315-.754-1.485-.99-1.89-2.992-.889-4.477.236-.349.54-.653.889-.889.259-.169.382-.461.315-.754-.349-1.755.788-3.454 2.554-3.803.203-.034.405-.056.619-.056s.439.023.653.056h.146c.236-.011.45-.135.574-.337.619-.933 1.654-1.439 2.7-1.439.619 0 1.238.169 1.789.54.36.236.675.54.911.9.135.202.371.337.619.337h.101c.214-.045.439-.067.653-.067 1.8.011 3.24 1.463 3.229 3.24 0 .214-.023.416-.056.619-.056.292.068.585.315.754 1.485.989 1.89 2.992.889 4.477z" fill="#ffb300"/><circle cx="24" cy="22" fill="#ffd54f" r="6"/></svg>

<svg xmlns="http://www.w3.org/2000/svg" viewBox="0 0 48 48" width="50" height="50" fill="#666"><path fill="#eceff1" d="M2 8H46V40H2z"/><path d="M44,10v28H4V10H44 M46,8H2v32h44V8L46,8z" fill="#cfd8dc"/><path d="M24.71,26.71L24,26l-0.7,0.71L23.59,27l-0.29,0.3L24,28l0.71-0.7L25,27L24.71,26.71z" fill="#3949ab"/><path d="M24.71,26.71L24,26l-0.7,0.71L23,27l1,1l0.71-0.7l-0.3-0.3L24.71,26.71z" fill="#3949ab"/><g fill="#3f51b5"><path d="M24 27L16 35 16 31 12 31 21 22 24 25 23.3 25.71 23 26z"/><path d="M36 31L32 31 32 35 24 27 24.71 26.3 25 26 24.71 25.71 24 25 27 22z"/></g><path d="M32.45,23.8c-0.236,0.349-0.54,0.653-0.889,0.889c-0.259,0.169-0.382,0.461-0.315,0.754 c0.349,1.755-0.788,3.454-2.554,3.803c-0.203,0.045-0.405,0.056-0.619,0.067c-0.214,0-0.439-0.023-0.653-0.067h-0.146 c-0.247,0-0.484,0.112-0.619,0.315C26.059,30.449,25.069,30.989,24,31h-0.011c-1.08,0-2.093-0.529-2.689-1.418 c-0.135-0.202-0.371-0.326-0.619-0.326H20.58c-0.214,0.034-0.439,0.056-0.653,0.056c-1.8-0.011-3.24-1.462-3.229-3.24 c0-0.214,0.023-0.416,0.056-0.619c0.068-0.293-0.056-0.585-0.315-0.754c-1.485-0.99-1.89-2.992-0.889-4.477 c0.236-0.349,0.54-0.653,0.889-0.889c0.259-0.169,0.382-0.461,0.315-0.754c-0.349-1.755,0.788-3.454,2.554-3.803 c0.203-0.034,0.405-0.056,0.619-0.056c0.214,0,0.439,0.023,0.653,0.056h0.146c0.236-0.011,0.45-0.135,0.574-0.337 C21.919,13.506,22.954,13,24,13c0.619,0,1.238,0.169,1.789,0.54c0.36,0.236,0.675,0.54,0.911,0.9 c0.135,0.202,0.371,0.337,0.619,0.337h0.101c0.214-0.045,0.439-0.067,0.653-0.067c1.8,0.011,3.24,1.463,3.229,3.24 c0,0.214-0.023,0.416-0.056,0.619c-0.056,0.292,0.068,0.585,0.315,0.754C33.046,20.312,33.451,22.315,32.45,23.8z" fill="#ffb300"/><circle cx="24" cy="22" r="6" fill="#ffd54f"/></svg>
